**kern	**kern
*staff2	*staff1
*clefF4	*clefG2
*k[b-]	*k[b-]
*M3/4	*M3/4
=-	=-
4r	4cc
=1	=1
2.r	(8bL
.	8ccJ
.	8ddL)
.	8cc'J
.	8b-'L
.	8a'J
=2	=2
*^	*
2.r	4r	8g'L
.	.	8f'J
.	4r	8e'L
.	.	8d'J
.	4B-	(8cL
.	.	8eJ)
=3	=3	=3
2.c	4A	4f
.	4G	(8fL)
.	.	8eJ
.	4F	8fL
.	.	8aJ)
=4	=4	=4
2c	2C	(4f 4a
.	.	4e) 4g
4r	4r	4cc
*v	*v	*
=5	=5
2.r	(8bL
.	8ccJ
.	8ddL)
.	8cc'J
.	8b-'L
.	8a'J
=6	=6
4r	8g'L
.	8f'J
4r	8e'L
.	8d'J
4BB-	(8cL
.	8eJ)
=7	=7
*	*^
4AA	4f	2r
4C	(8fL	.
.	8aJ)	.
4CC	(8gL	4B-
.	8eJ)	.
=8	=8	=8
4FF	4f	4A
4F	4r	4r
*	*v	*v
*-	*-
